lib/brands/logos/google-play.svg

<svg xmlns="http://www.w3.org/2000/svg" fill="none" aria-hidden="true" viewBox="0 0 233 59"><g id="Google Play"><g id="Group"><g id="Group_2"><path id="Vector" fill="#FFD900" d="M44.466 36.6017C50.227 33.4384 54.5946 31.028 54.971 30.8407C56.1753 30.2002 57.4189 28.5052 54.971 27.1886C54.1807 26.7747 49.9255 24.4392 44.466 21.4276L36.8977 29.0708L44.466 36.6017Z"/><path id="Vector_2" fill="#F43249" d="M36.8977 29.0708L12.7993 53.3584C13.3649 53.4333 14.0036 53.2835 14.7565 52.8696C16.3372 52.0043 33.0939 42.8534 44.466 36.6036L36.8977 29.0708Z"/><path id="Vector_3" fill="#00EE76" d="M36.8978 29.0709L44.4661 21.4651C44.4661 21.4651 16.4515 6.17674 14.7566 5.27401C14.1179 4.89569 13.4025 4.78332 12.762 4.89569L36.8978 29.0709Z"/><path id="Vector_4" fill="#00D3FF" d="M36.8978 29.0709L12.7619 4.89569C11.7824 5.12231 10.9546 5.98758 10.9546 7.75745C10.9546 10.5818 10.9546 48.1611 10.9546 50.4966C10.9546 52.1167 11.5951 53.2835 12.7994 53.3958L36.8978 29.0709Z"/></g><path id="Vector_5" fill="#808285" d="M115.484 24.2501C111.154 24.2501 107.577 27.6006 107.577 32.1948C107.577 36.7515 111.116 40.1396 115.484 40.1396C119.851 40.1396 123.391 36.789 123.391 32.1948C123.391 27.6006 119.851 24.2501 115.484 24.2501ZM115.484 36.9782C113.111 36.9782 111.041 34.9817 111.041 32.1592C111.041 29.2975 113.113 27.3403 115.484 27.3403C117.855 27.3403 119.926 29.2975 119.926 32.1592C119.926 34.9817 117.855 36.9782 115.484 36.9782ZM98.2758 24.2501C93.9082 24.2501 90.3685 27.6006 90.3685 32.1948C90.3685 36.7515 93.9082 40.1396 98.2758 40.1396C102.643 40.1396 106.183 36.789 106.183 32.1948C106.183 27.6006 102.643 24.2501 98.2758 24.2501ZM98.2758 36.9782C95.9029 36.9782 93.8333 34.9817 93.8333 32.1592C93.8333 29.2975 95.9047 27.3403 98.2758 27.3403C100.649 27.3403 102.718 29.2975 102.718 32.1592C102.718 34.9817 100.684 36.9782 98.2758 36.9782ZM77.8295 26.6979V30.0485H85.8118C85.5851 31.9307 84.9465 33.3242 84.0044 34.2662C82.8376 35.433 81.0303 36.7141 77.8295 36.7141C72.8964 36.7141 69.0944 32.723 69.0944 27.7898C69.0944 22.8566 72.8982 18.7906 77.8295 18.7906C80.5021 18.7906 82.4237 19.845 83.8546 21.201L86.2257 18.8281C84.2292 16.9084 81.5566 15.44 77.8295 15.44C71.089 15.44 65.4404 20.9744 65.4404 27.7149C65.4404 34.4554 71.089 39.9898 77.8295 39.9898C81.4817 39.9898 84.1936 38.7855 86.3774 36.5249C88.5986 34.3037 89.2766 31.1778 89.2766 28.6551C89.2766 27.8647 89.2017 27.1493 89.0874 26.5462L77.8295 26.6979ZM161.497 29.2956C160.856 27.5257 158.824 24.2501 154.756 24.2501C150.688 24.2501 147.338 27.4508 147.338 32.1948C147.338 36.6373 150.688 40.1396 155.133 40.1396C158.747 40.1396 160.819 37.9183 161.684 36.6373L159.011 34.83C158.107 36.1485 156.903 37.0137 155.133 37.0137C153.363 37.0137 152.121 36.2234 151.329 34.6033L161.834 30.1983L161.497 29.2956ZM150.803 31.9701C150.728 28.9191 153.176 27.3384 154.906 27.3384C156.3 27.3384 157.429 28.0164 157.843 29.0334L150.803 31.9701ZM142.255 39.6133H145.72V16.3427H142.255V39.6133ZM136.608 26.0199H136.496C135.705 25.0779 134.237 24.2501 132.353 24.2501C128.399 24.2501 124.822 27.7523 124.822 32.1948C124.822 36.6373 128.437 40.1021 132.353 40.1021C134.235 40.1021 135.703 39.2743 136.496 38.2948H136.608V39.4241C136.608 42.4751 134.988 44.0932 132.39 44.0932C130.281 44.0932 128.963 42.55 128.437 41.2689L125.425 42.55C126.29 44.6588 128.588 47.2565 132.39 47.2565C136.456 47.2565 139.884 44.8461 139.884 39.0102V24.7389H136.608V26.0199ZM132.654 36.9782C130.281 36.9782 128.287 34.9817 128.287 32.1967C128.287 29.4117 130.283 27.3778 132.654 27.3778C134.99 27.3778 136.872 29.4117 136.872 32.1967C136.87 34.9442 134.988 36.9782 132.654 36.9782ZM177.65 16.3427H169.367V39.6133H172.831V30.8014H177.65C181.492 30.8014 185.256 28.0145 185.256 23.5721C185.256 19.1296 181.492 16.3427 177.65 16.3427ZM177.763 27.5651H172.867V19.581H177.763C180.323 19.581 181.829 21.7273 181.829 23.5721C181.793 25.3794 180.325 27.5651 177.763 27.5651ZM199.076 24.2126C196.591 24.2126 193.993 25.3045 192.939 27.7898L195.99 29.0709C196.668 27.7898 197.872 27.3759 199.153 27.3759C200.96 27.3759 202.768 28.4678 202.805 30.3875V30.6141C202.165 30.2377 200.848 29.7095 199.19 29.7095C195.877 29.7095 192.525 31.5543 192.525 34.9442C192.525 38.0701 195.237 40.0647 198.248 40.0647C200.584 40.0647 201.863 39.0102 202.653 37.7685H202.766V39.5758H206.116V30.6516C206.079 26.5481 203.03 24.2126 199.076 24.2126ZM198.662 36.9407C197.533 36.9407 195.95 36.3751 195.95 34.9835C195.95 33.1762 197.907 32.4982 199.602 32.4982C201.108 32.4982 201.824 32.8372 202.766 33.2886C202.502 35.4349 200.657 36.9407 198.662 36.9407ZM218.204 24.7407L214.25 34.7944H214.138L210.034 24.7407H206.307L212.482 38.8229L208.98 46.6928H212.595L222.045 24.7407H218.204ZM187.178 39.6133H190.643V16.3427H187.178V39.6133Z"/></g></g></svg>

<svg xmlns="http://www.w3.org/2000/svg" fill="none" aria-hidden="true" viewBox="0 0 233 59"><path fill="#FFD900" d="M44.466 36.602c5.761-3.164 10.129-5.574 10.505-5.761 1.204-.64 2.448-2.336 0-3.652-.79-.414-5.045-2.75-10.505-5.761l-7.568 7.643 7.568 7.53Z"/><path fill="#F43249" d="M36.898 29.07 12.799 53.359c.566.075 1.205-.075 1.958-.488 1.58-.866 18.337-10.017 29.71-16.267l-7.57-7.532Z"/><path fill="#00EE76" d="m36.898 29.07 7.568-7.605S16.452 6.177 14.756 5.274c-.638-.378-1.353-.49-1.994-.378L36.898 29.07Z"/><path fill="#00D3FF" d="M36.898 29.07 12.762 4.897c-.98.226-1.807 1.092-1.807 2.861v42.74c0 1.62.64 2.786 1.845 2.899L36.898 29.07Z"/><path fill="#808285" d="M115.484 24.25c-4.33 0-7.907 3.35-7.907 7.945 0 4.556 3.539 7.944 7.907 7.944s7.907-3.35 7.907-7.944c0-4.594-3.539-7.945-7.907-7.945Zm0 12.728c-2.373 0-4.443-1.996-4.443-4.819 0-2.862 2.072-4.819 4.443-4.819 2.371 0 4.442 1.957 4.442 4.82 0 2.822-2.071 4.818-4.442 4.818ZM98.276 24.25c-4.368 0-7.907 3.35-7.907 7.945 0 4.556 3.54 7.944 7.907 7.944s7.907-3.35 7.907-7.944c0-4.594-3.54-7.945-7.907-7.945Zm0 12.728c-2.373 0-4.443-1.996-4.443-4.819 0-2.862 2.072-4.819 4.443-4.819 2.373 0 4.442 1.957 4.442 4.82 0 2.822-2.034 4.818-4.442 4.818ZM77.83 26.698v3.35h7.982c-.227 1.883-.865 3.276-1.807 4.218-1.167 1.167-2.975 2.448-6.175 2.448-4.933 0-8.736-3.991-8.736-8.924s3.804-9 8.736-9c2.672 0 4.594 1.055 6.025 2.41l2.37-2.372c-1.996-1.92-4.668-3.388-8.395-3.388-6.74 0-12.39 5.534-12.39 12.275 0 6.74 5.65 12.275 12.39 12.275 3.652 0 6.364-1.205 8.547-3.465 2.222-2.221 2.9-5.347 2.9-7.87 0-.79-.075-1.506-.19-2.109l-11.257.152Zm83.667 2.598c-.641-1.77-2.673-5.046-6.741-5.046-4.067 0-7.418 3.2-7.418 7.945 0 4.442 3.351 7.944 7.795 7.944 3.615 0 5.686-2.22 6.551-3.502l-2.672-1.807c-.905 1.318-2.109 2.184-3.879 2.184s-3.012-.79-3.804-2.41l10.505-4.406-.337-.902Zm-10.694 2.674c-.075-3.05 2.373-4.632 4.103-4.632 1.394 0 2.523.678 2.937 1.695l-7.04 2.937Zm-8.548 7.643h3.465v-23.27h-3.465v23.27Zm-5.647-13.593h-.112c-.791-.942-2.259-1.77-4.143-1.77-3.954 0-7.531 3.502-7.531 7.945 0 4.442 3.615 7.907 7.531 7.907 1.882 0 3.351-.828 4.143-1.807h.112v1.13c0 3.05-1.62 4.668-4.218 4.668-2.108 0-3.427-1.543-3.953-2.824l-3.012 1.28c.865 2.11 3.164 4.708 6.965 4.708 4.066 0 7.494-2.41 7.494-8.247V24.74h-3.276v1.28Zm-3.953 10.958c-2.373 0-4.368-1.996-4.368-4.781 0-2.785 1.996-4.82 4.368-4.82 2.335 0 4.217 2.035 4.217 4.82-.002 2.747-1.884 4.781-4.217 4.781Zm44.996-20.635h-8.284v23.27h3.465v-8.812h4.819c3.841 0 7.605-2.786 7.605-7.229 0-4.442-3.764-7.23-7.605-7.23Zm.112 11.222h-4.896v-7.984h4.896c2.56 0 4.066 2.146 4.066 3.991-.036 1.807-1.504 3.993-4.066 3.993Zm21.313-3.353c-2.485 0-5.083 1.092-6.137 3.578l3.051 1.28c.678-1.28 1.882-1.694 3.163-1.694 1.807 0 3.615 1.092 3.652 3.011v.227c-.64-.376-1.957-.905-3.614-.905-3.314 0-6.666 1.845-6.666 5.235 0 3.126 2.712 5.12 5.723 5.12 2.336 0 3.615-1.054 4.406-2.296h.112v1.808h3.35V30.65c-.037-4.103-3.086-6.439-7.04-6.439Zm-.414 12.729c-1.129 0-2.712-.566-2.712-1.958 0-1.807 1.958-2.485 3.653-2.485 1.505 0 2.221.34 3.163.79a4.168 4.168 0 0 1-4.104 3.653Zm19.542-12.2-3.954 10.053h-.112l-4.103-10.053h-3.727l6.174 14.082-3.502 7.87h3.615l9.45-21.952h-3.841Zm-31.026 14.872h3.465v-23.27h-3.465v23.27Z"/></svg>
